images/services/polls-icon.svg

<?xml version="1.0" encoding="UTF-8"?>
<svg width="39" height="52" version="1.1" viewBox="0 0 39 52" xmlns="http://www.w3.org/2000/svg">
 <path d="m27.625 3.25h-3.5295c-0.6695-1.8915-2.4765-3.25-4.5955-3.25s-3.926 1.3585-4.5988 3.25h-3.5262c-0.897 0-1.625 0.728-1.625 1.625v6.5c0 0.897 0.728 1.625 1.625 1.625h16.25c0.897 0 1.625-0.728 1.625-1.625v-6.5c0-0.897-0.728-1.625-1.625-1.625z" fill="#FF725E"/>
 <path d="m35.75 6.5h-3.25v4.875c0 2.6877-2.1873 4.875-4.875 4.875h-16.25c-2.6878 0-4.875-2.1873-4.875-4.875v-4.875h-3.25c-1.7908 0-3.25 1.4592-3.25 3.25v39c0 1.8232 1.4268 3.25 3.25 3.25h32.5c1.8232 0 3.25-1.4268 3.25-3.25v-39c0-1.8232-1.4268-3.25-3.25-3.25zm-16.724 28.776-6.5 6.5c-0.3058 0.3039-0.7194 0.4745-1.1505 0.4745s-0.8447-0.1706-1.1505-0.4745l-3.25-3.25c-0.63375-0.6337-0.63375-1.664 0-2.2977 0.63375-0.6338 1.664-0.6338 2.2978 0l2.1028 2.0995 5.3495-5.3495c0.6337-0.6338 1.664-0.6338 2.2978 0 0.6337 0.6337 0.637 1.6607 0.0032 2.2977zm0-13-6.5 6.5c-0.3058 0.3039-0.7194 0.4745-1.1505 0.4745s-0.8447-0.1706-1.1505-0.4745l-3.25-3.25c-0.63375-0.6337-0.63375-1.664 0-2.2978 0.63375-0.6337 1.664-0.6337 2.2978 0l2.1028 2.0996 5.3495-5.3496c0.6337-0.6337 1.664-0.6337 2.2978 0 0.6337 0.6338 0.637 1.6608 0.0032 2.2978zm11.85 16.724h-6.5c-0.897 0-1.625-0.728-1.625-1.625s0.728-1.625 1.625-1.625h6.5c0.897 0 1.625 0.728 1.625 1.625s-0.728 1.625-1.625 1.625zm0-13h-6.5c-0.897 0-1.625-0.728-1.625-1.625s0.728-1.625 1.625-1.625h6.5c0.897 0 1.625 0.728 1.625 1.625s-0.728 1.625-1.625 1.625z" fill="#FF725E"/>
</svg>

<svg width="39" height="52" viewBox="0 0 39 52" fill="none" xmlns="http://www.w3.org/2000/svg">
<path d="M27.625 3.25H24.0955C23.426 1.3585 21.619 0 19.5 0C17.381 0 15.574 1.3585 14.9012 3.25H11.375C10.478 3.25 9.75 3.978 9.75 4.875V11.375C9.75 12.272 10.478 13 11.375 13H27.625C28.522 13 29.25 12.272 29.25 11.375V4.875C29.25 3.978 28.522 3.25 27.625 3.25Z" fill="#407BFF"/>
<path d="M35.75 6.5H32.5V11.375C32.5 14.0627 30.3127 16.25 27.625 16.25H11.375C8.68725 16.25 6.5 14.0627 6.5 11.375V6.5H3.25C1.45925 6.5 0 7.95925 0 9.75V48.75C0 50.5732 1.42675 52 3.25 52H35.75C37.5732 52 39 50.5732 39 48.75V9.75C39 7.92675 37.5732 6.5 35.75 6.5ZM19.0255 35.2755L12.5255 41.7755C12.2197 42.0794 11.8061 42.25 11.375 42.25C10.9439 42.25 10.5303 42.0794 10.2245 41.7755L6.9745 38.5255C6.34075 37.8918 6.34075 36.8615 6.9745 36.2278C7.60825 35.594 8.6385 35.594 9.27225 36.2278L11.375 38.3273L16.7245 32.9778C17.3582 32.344 18.3885 32.344 19.0223 32.9778C19.656 33.6115 19.6593 34.6385 19.0255 35.2755ZM19.0255 22.2755L12.5255 28.7755C12.2197 29.0794 11.8061 29.25 11.375 29.25C10.9439 29.25 10.5303 29.0794 10.2245 28.7755L6.9745 25.5255C6.34075 24.8918 6.34075 23.8615 6.9745 23.2277C7.60825 22.594 8.6385 22.594 9.27225 23.2277L11.375 25.3273L16.7245 19.9777C17.3582 19.344 18.3885 19.344 19.0223 19.9777C19.656 20.6115 19.6593 21.6385 19.0255 22.2755ZM30.875 39H24.375C23.478 39 22.75 38.272 22.75 37.375C22.75 36.478 23.478 35.75 24.375 35.75H30.875C31.772 35.75 32.5 36.478 32.5 37.375C32.5 38.272 31.772 39 30.875 39ZM30.875 26H24.375C23.478 26 22.75 25.272 22.75 24.375C22.75 23.478 23.478 22.75 24.375 22.75H30.875C31.772 22.75 32.5 23.478 32.5 24.375C32.5 25.272 31.772 26 30.875 26Z" fill="#407BFF"/>
</svg>
